X: 405
T: Bir Peri-rûyin
C: Hamparsum
O: Turkey
F: http://compmusic.upf.edu/node/140
N: buselik--sarki--agiraksak--bir_peri-ruyin--hamparsum
N: makam= buselik
N: form= sarki
N: usul= agiraksak = 9/4
M: 9/4
L: 1/16
K: C    
Q: 1/4=63
%%MIDI tuningsystem comma53
c8 z2A4e2 d3/2e/dc Bcde d2c2 B2A2 dcBA  | \
w:   | 
BA^G2 G4 z2AB A2G2 A2B2 c2d2 e3d c2d2 e3/2f/ed  | 
w:   | 
e8 e4 z2gf f4 f3e e3d d3/2_7/8e/de dedc  | \
w:   | 
Bcd_7/8e ^f2ed z2dc c4 c4 cBA^G/A/ B2c2 d2=e2 dcd2  | 
w:   | 
cBc8z2 e2d2 e2gf edcB AGgf f2f3ee3dg^f _7/8edcB c2z2 BcB2 c2=e2 d=fe2 d2c3/2d/ cBA4ed  | 
w:   | 
e2z2 e2d2 e2z2 gfe2 d2ag a2gf fef2 eddc Bced  | 
w:   | 
cBAc BAAG G^FG4z2 GcB2 c2de/f/ edcB A2B3/2d/ cBcB  | 
w:   | 
A^GA4Bc d2d4z2 BcB2 c2d8^f3_7/8ed2  | \
w:   | 
g2g^f _7/8eddc cBc4z2 g4 g2g2 f4 e2fe e4  | 
w:   | 
_7/8edg^f eddc cBc4z2 g=ff4f3=ee3dd3/2_7/8e/ dede  | 
w:   | 
dcd_7/8e dcc8z2 =e2d2 e2gf edcB AGgf f2f3ee3dg^f _7/8edcB c2z2 BcB2 c2=e2 d=fe2 d2c3/2d/ cBA4ed e2z2 e2d2 e2z2 gfe2 d2ag a2gf fef2 eddc  | 
w:   | 
Bced cBAc BAAG G^FG4z2 GcB2 c2de/f/ edcB A2B3/2d/  | 
w:   | 
cBcB A^GA4A3ed2 e2d3/2f/ edcB c2c3/2B/ cdcd cBBA  | 
w:   | 
^GAB6 z2A3ed2 e2d3/2f/ edcB A2Bc Bced cBBA  | 
w:   | 
A^GA6 z2|
w:   | 


